flaticon/arrows/drag-6.svg

<svg xmlns="http://www.w3.org/2000/svg" width="32" height="32" viewBox="0 0 24 24">
    <path d="M 23.964844 0.269531 C 23.921875 0.164062 23.835938 0.078125 23.730469 0.0351562 C 23.675781 0.0117188 23.621094 0 23.5625 0 L 15.472656 0 C 15.230469 0 15.035156 0.195312 15.035156 0.4375 C 15.035156 0.675781 15.230469 0.871094 15.472656 0.871094 L 22.511719 0.871094 L 7.871094 15.511719 C 7.035156 14.820312 5.964844 14.398438 4.800781 14.398438 C 2.152344 14.398438 0 16.554688 0 19.199219 C 0 21.847656 2.152344 24 4.800781 24 C 7.445312 24 9.601562 21.847656 9.601562 19.199219 C 9.601562 18.03125 9.179688 16.964844 8.488281 16.128906 L 23.128906 1.488281 L 23.128906 8.527344 C 23.128906 8.769531 23.324219 8.964844 23.5625 8.964844 C 23.804688 8.964844 24 8.769531 24 8.527344 L 24 0.4375 C 24 0.378906 23.988281 0.324219 23.964844 0.269531 Z M 4.800781 23.128906 C 2.632812 23.128906 0.871094 21.367188 0.871094 19.199219 C 0.871094 17.035156 2.632812 15.273438 4.800781 15.273438 C 6.964844 15.273438 8.726562 17.035156 8.726562 19.199219 C 8.726562 21.367188 6.964844 23.128906 4.800781 23.128906 Z M 4.800781 23.128906"/>
</svg>

<svg xmlns="http://www.w3.org/2000/svg" width="32" height="32" viewBox="0 0 24 24">
    <path d="M23.965.27a.43.43 0 0 0-.235-.235.418.418 0 0 0-.168-.035h-8.09a.436.436 0 0 0 0 .871h7.04l-14.64 14.64A4.808 4.808 0 0 0 4.8 14.399 4.807 4.807 0 0 0 0 19.2C0 21.848 2.152 24 4.8 24c2.645 0 4.802-2.152 4.802-4.8a4.8 4.8 0 0 0-1.114-3.071l14.64-14.64v7.038a.436.436 0 1 0 .872 0V.437a.418.418 0 0 0-.035-.167zM4.8 23.129a3.933 3.933 0 0 1-3.93-3.93 3.932 3.932 0 0 1 3.93-3.926A3.931 3.931 0 0 1 8.727 19.2 3.932 3.932 0 0 1 4.8 23.13zm0 0"/>
</svg>
